!!!SOCIAL_FUNCTION:	songs of the drum religion
!!!PDT:	1932
!!!OTL: No_105_Dancing_Song.krn
!!!REG: Wisconsin
!!!LANG: Non-Tone
!!!LING_GROUP: Algonquin
**kern
*staff1
=1-
*clefF4
*k[f#c#]
*M2/4
4r
8r
16r
16B\
=2
4B\
4B\
=3
12B\L
12F#\
[12F#\J
4F#\]
=4
12B\L
12F#\
12F#\J
8.F#\L
16F#\Jk
=5
4F#\
8BB/
16r
16B\
=6
4B\
4B\
=7
12B\L
12F#\
[12F#\J
4F#\]
=8
=
12B\L
12F#\
12F#\J
8.F#\L
16F#\Jk
=9
4F#\
8r
16r
16B\
=10
12B\L
12F#\
12F#\J
8.F#\L
16F#\Jk
=11
12F#\L
12E\
[12E\J
4E\]
=12
12E\L
12D\
12D\J
8.D\L
16D\Jk
=13
12D/L
12BB/
12BB/J
8r
16r
16D\
=14
8.D\L
16D\Jk
8.E\L
16E\Jk
=15
8E\L
[8D\J
4D\]
=16
12D\L
12D\
12C#\J
8BB/L
8BB/J
=17
2BB/
=18
4r
8r
16r
16B\
==:|!
*-
